X:7042
T:High Reel
T:Sandy Duff
T:Duffy the Dancer
R:Reel
H:Originally Scottish
Z:id:hn-reel-121
M:C|
L:1/8
Q:1/4=200
K:Amix
|:a2fa eA~A2|cAeA fAeA|a2fa eA~A2|Bcdc BG~G2|
a2fa eA~A2|(3Bcd ef g2fg|afge fdec|Bcdc BG~G2:|
|:(3cBA eA fAed|(3cBA af eA~A2|(3cBA eA fAec|Bcdc BG~G2|
(3cBA eA fAeA|(3Bcd ef g2fg|afge fdec|Bcdc BG~G2:|
